src/standard/stopwatch.svg

<svg xmlns="http://www.w3.org/2000/svg" viewBox="0 0 36 36">
  <path d="M20.74 32.35C31 30.4 35.2 17.42 28.06 9.83l.55-.55 1 1a.62.62 0 0 0 .88-.88l-2.86-2.86c-.56-.58-1.46.32-.88.88l1 1-.55.55a13.35 13.35 0 0 0-8.55-3.53v-.82H20a.62.62 0 0 0 0-1.24h-4a.62.62 0 0 0 0 1.24h1.37v.79c-7.06.12-13.11 6.53-13 13.59-.15 8.42 8.17 15.21 16.37 13.35Zm-.25-1.23A12.42 12.42 0 0 1 6.15 15.44c3.81-12.2 21.22-11.47 24 1a12.44 12.44 0 0 1-9.66 14.68Z"/>
  <path d="M11 11.38a.63.63 0 1 0 .63.62.62.62 0 0 0-.63-.62Zm-3 7.07a.63.63 0 1 0 .63.63.63.63 0 0 0-.63-.63Zm3 6.92a.63.63 0 1 0 .63.63.63.63 0 0 0-.63-.63Zm7 3.01a.63.63 0 1 0 .63.63.63.63 0 0 0-.63-.63Zm7-3a.63.63 0 1 0 .63.62.62.62 0 0 0-.63-.62Zm3-5.75a.63.63 0 1 0-.62-.63.63.63 0 0 0 .62.63Zm-3-8.26a.63.63 0 1 0 .63.63.63.63 0 0 0-.63-.63Zm-4.51 9.2A3 3 0 0 0 21 19a3 3 0 0 0-2.33-2.88V9a.62.62 0 0 0-.67-.62.63.63 0 0 0-.63.62v7.12A2.95 2.95 0 0 0 18 22a2.86 2.86 0 0 0 1.61-.49l1.66 1.69a.62.62 0 0 0 .89-.87ZM16.3 19a1.7 1.7 0 1 1 1.7 1.7 1.7 1.7 0 0 1-1.7-1.7Z"/>
</svg>

<svg id="b511b1a5-a130-4847-b6fa-bb018e675d5e" data-name="Icon" xmlns="http://www.w3.org/2000/svg" viewBox="0 0 36 36">
  <title>Stopwatch icon - Black</title>
<desc>time, date, pass, track, count, timer, clock, bake, kitchen, pause, segment, seconds, minutes, hours, stop, objects</desc>
<metadata><?xpacket begin="﻿" id="W5M0MpCehiHzreSzNTczkc9d"?>
<x:xmpmeta xmlns:x="adobe:ns:meta/" x:xmptk="Adobe XMP Core 8.0-c001 1.000000, 0000/00/00-00:00:00        ">
   <rdf:RDF xmlns:rdf="http://www.w3.org/1999/02/22-rdf-syntax-ns#">
      <rdf:Description rdf:about=""
            xmlns:xmp="http://ns.adobe.com/xap/1.0/"
            xmlns:dc="http://purl.org/dc/elements/1.1/"
            xmlns:cq="http://www.day.com/jcr/cq/1.0"
            xmlns:tiff="http://ns.adobe.com/tiff/1.0/">
         <xmp:rhcc-effective-on>2023-12-08T17:36:30.193Z</xmp:rhcc-effective-on>
         <xmp:rhcc-metadata-complete-moderator>pending</xmp:rhcc-metadata-complete-moderator>
         <xmp:rhcc-translation-id>TRA51e35ad9-3c27-4b33-be63-0ca6bf1d88c9</xmp:rhcc-translation-id>
         <xmp:brand-content-type>Icon</xmp:brand-content-type>
         <xmp:CreateDate>2023-12-08T17:36:30.193Z</xmp:CreateDate>
         <xmp:rhcc-effective-on-set-on-upload>true</xmp:rhcc-effective-on-set-on-upload>
         <xmp:rhcc-metadata-complete-uploader>pending</xmp:rhcc-metadata-complete-uploader>
         <xmp:rhcc-file-last-modified>2023-12-08T17:38:14.001Z</xmp:rhcc-file-last-modified>
         <xmp:rhcc-audience>rhcc-audience:internal</xmp:rhcc-audience>
         <xmp:rhcc-rights-restricted>no</xmp:rhcc-rights-restricted>
         <xmp:brand-content-subtype>Icon</xmp:brand-content-subtype>
         <xmp:rhcc-derivative-id>DER51e35ad9-3c27-4b33-be63-0ca6bf1d88c9</xmp:rhcc-derivative-id>
         <xmp:brand-logo-color>Black</xmp:brand-logo-color>
         <xmp:rhcc-notify-portal-subscribers-on-change>yes</xmp:rhcc-notify-portal-subscribers-on-change>
         <dc:format>image/svg+xml</dc:format>
         <dc:modified>2024-02-09T20:33:11.022Z</dc:modified>
         <dc:title>
            <rdf:Alt>
               <rdf:li xml:lang="x-default">Stopwatch icon - Black</rdf:li>
            </rdf:Alt>
         </dc:title>
         <dc:description>
            <rdf:Alt>
               <rdf:li xml:lang="x-default">time, date, pass, track, count, timer, clock, bake, kitchen, pause, segment, seconds, minutes, hours, stop, objects</rdf:li>
            </rdf:Alt>
         </dc:description>
         <cq:lastReplicationAction_scene7>Activate</cq:lastReplicationAction_scene7>
         <cq:lastReplicationAction_publish>Activate</cq:lastReplicationAction_publish>
         <cq:lastReplicated_publish>2024-02-09T22:20:49.881Z</cq:lastReplicated_publish>
         <cq:lastReplicatedBy>workflow-process-service</cq:lastReplicatedBy>
         <cq:lastReplicationAction>Activate</cq:lastReplicationAction>
         <cq:lastReplicatedBy_publish>workflow-process-service</cq:lastReplicatedBy_publish>
         <cq:isDelivered>true</cq:isDelivered>
         <cq:lastReplicated>2024-02-09T22:20:49.881Z</cq:lastReplicated>
         <cq:lastReplicatedBy_scene7>workflow-process-service</cq:lastReplicatedBy_scene7>
         <cq:lastReplicated_scene7>2024-02-09T22:20:49.881Z</cq:lastReplicated_scene7>
         <tiff:ImageLength>36</tiff:ImageLength>
         <tiff:ImageWidth>36</tiff:ImageWidth>
      </rdf:Description>
   </rdf:RDF>
</x:xmpmeta>
                                                                                                    
                                                                                                    
                                                                                                    
                                                                                                    
                                                                                                    
                                                                                                    
                                                                                                    
                                                                                                    
                                                                                                    
                                                                                                    
                                 
<?xpacket end="w"?></metadata>
<g>
    <path d="M20.74,32.35C31,30.4,35.2,17.42,28.06,9.83l.55-.55,1,1a.62.62,0,0,0,.88-.88L27.63,6.54c-.56-.58-1.46.32-.88.88l1,1-.55.55a13.35,13.35,0,0,0-8.55-3.53V4.62H20a.62.62,0,0,0,0-1.24H16a.62.62,0,0,0,0,1.24h1.37v.79c-7.06.12-13.11,6.53-13,13.59C4.22,27.42,12.54,34.21,20.74,32.35Zm-.25-1.23A12.42,12.42,0,0,1,6.15,15.44c3.81-12.2,21.22-11.47,24,1A12.44,12.44,0,0,1,20.49,31.12Z"/>
    <path d="M11,11.38a.63.63,0,1,0,.63.62A.62.62,0,0,0,11,11.38Z"/>
    <path d="M8,18.45a.63.63,0,1,0,.63.63A.63.63,0,0,0,8,18.45Z"/>
    <path d="M11,25.37a.63.63,0,1,0,.63.63A.63.63,0,0,0,11,25.37Z"/>
    <path d="M18,28.38a.63.63,0,1,0,.63.63A.63.63,0,0,0,18,28.38Z"/>
    <path d="M25,25.38a.63.63,0,1,0,.63.62A.62.62,0,0,0,25,25.38Z"/>
    <path d="M28,19.63a.63.63,0,1,0-.62-.63A.63.63,0,0,0,28,19.63Z"/>
    <path d="M25,11.37a.63.63,0,1,0,.63.63A.63.63,0,0,0,25,11.37Z"/>
    <path d="M20.49,20.57A3,3,0,0,0,21,19a3,3,0,0,0-2.33-2.88V9A.62.62,0,0,0,18,8.38a.63.63,0,0,0-.63.62v7.12A2.95,2.95,0,0,0,18,22a2.86,2.86,0,0,0,1.61-.49l1.66,1.69a.62.62,0,0,0,.89-.87ZM16.3,19A1.7,1.7,0,1,1,18,20.7,1.7,1.7,0,0,1,16.3,19Z"/>
  </g>
</svg>
